communes/5436.svg

<?xml version="1.0" encoding="UTF-8"?>
<svg version="1.0" viewBox="0 0 603 763" xmlns="http://www.w3.org/2000/svg" xmlns:cc="http://creativecommons.org/ns#" xmlns:dc="http://purl.org/dc/elements/1.1/" xmlns:rdf="http://www.w3.org/1999/02/22-rdf-syntax-ns#" xmlns:xlink="http://www.w3.org/1999/xlink">
<metadata>
<rdf:RDF>
<cc:Work rdf:about="">
<dc:format>image/svg+xml</dc:format>
<dc:type rdf:resource="http://purl.org/dc/dcmitype/StillImage"/>
<dc:date>07-AUG-2006</dc:date>
<dc:creator>
<cc:Agent>
<dc:title>Jérôme BLUM (wagner51)</dc:title>
</cc:Agent>
</dc:creator>
<cc:license rdf:resource="http://creativecommons.org/licenses/GPL/2.0/"/>
<dc:coverage/>
<dc:description>Gabarit pour le Projet:Blasons de WIkipédia</dc:description>
<dc:subject>
<rdf:Bag>
<rdf:li>blason suisse modèle gabarit projet blasons</rdf:li>
</rdf:Bag>
</dc:subject>
<dc:language>fr</dc:language>
<dc:title>Gabrit d'un blason suisse</dc:title>
</cc:Work>
<cc:License rdf:about="http://creativecommons.org/licenses/GPL/2.0/">
<cc:permits rdf:resource="http://web.resource.org/cc/Reproduction"/>
<cc:permits rdf:resource="http://web.resource.org/cc/Distribution"/>
<cc:requires rdf:resource="http://web.resource.org/cc/Notice"/>
<cc:permits rdf:resource="http://web.resource.org/cc/DerivativeWorks"/>
<cc:requires rdf:resource="http://web.resource.org/cc/ShareAlike"/>
<cc:requires rdf:resource="http://web.resource.org/cc/SourceCode"/>
</cc:License>
</rdf:RDF>
</metadata>
<defs>
<radialGradient id="a" cx="858.04" cy="579.93" r="300" gradientTransform="matrix(1.215 1.5316e-24 1.4647e-23 1.2667 -839.19 -490.49)" gradientUnits="userSpaceOnUse">
<stop stop-color="#fff" stop-opacity=".31373" offset="0"/>
<stop stop-color="#fff" stop-opacity=".25098" offset=".19"/>
<stop stop-color="#6b6b6b" stop-opacity=".12549" offset=".6"/>
<stop stop-opacity=".12549" offset="1"/>
</radialGradient>
</defs>
<desc>Coat of Arms of Canton of Freiburg (Fribourg)</desc>
<g>
<path d="m1.5 1.5v458.87c0 166.31 134.31 301.13 300 301.13s300-134.82 300-301.13v-458.87h-600z" fill="#fcef3c"/>
<path d="m1.5 251.19v209.18c0 166.31 134.31 301.13 300 301.13 165.69 0 300-134.82 300-301.13v-209.18h-600z" fill="#e20909"/>
<line x1="1.5" x2="601.5" y1="251.19" y2="251.19" fill="none" stroke="#000" stroke-width="3"/>
<path d="m249.53 36.075c3.981-1.398 3.11 6.686 18.659 6.686 6.22 0 13.967-1.633 20.395 2.955l-1.956 1.956s-7.334-2.425-18.594-0.712c-14.306 2.177-25.812-8.317-18.504-10.885z"/>
<path d="m261.2 36.852s8.812-13.579 28.197-4.302l1.502 13.631-5.856 12.906s-11.403 2.643-17.934-8.086c0 0 14.927 2.955 19.281-5.287 0 2e-3 -3.421-9.639-25.19-8.862z"/>
<path d="m436.03 64.686s39.495 6.22 71.216 6.22c61.576 0 57.844-46.026 57.844-46.026-49.136 30.788-146.37 2.903-166.48 2.903-20.109 0-29.232 9.329-29.232 22.598 0 10.988 6.22 13.062 6.22 27.16 0 14.099-8.708 24.05-24.464 24.05-21.397 0-34.373-7.672-34.373-24.257s5.599-21.977 2.074-35.867c11.817-2.695 16.171-18.867 16.171-18.867-17.829 9.538-23.013 4.146-30.27 4.146-10.782 0-15.342 5.805-15.342 5.805 0 19.074-4.354 26.538-4.354 26.538s3.524 1.036 3.524 8.293-6.842 34.209-36.696 34.209c-15.756 0-24.464-9.952-24.464-24.05s6.22-16.172 6.22-27.16c0-13.269-9.122-22.598-29.232-22.598s-117.35 27.884-166.48-2.904c0 0-3.732 46.026 57.843 46.026 31.721 0 71.216-6.22 71.216-6.22s-69.971 36.386-127.5 17.105c0 0 11.195 27.678 50.691 27.678 37.318 0 78.162-19.696 78.162-19.696s-40.844 47.996-117.04 30.269c0 0 9.019 23.324 43.849 23.324s83.034-30.166 83.034-30.166-26.434 50.38-82.412 46.026c0 0 7.464 14.305 30.477 14.305 28.3 0 53.023-21.924 69.039-37.94 0 0-4.043 35.453-35.142 41.05 0 0 6.203 7.942 19.642 5.237 13.658-2.749 27.939-23.896 31.671-47.531 33.38 0 41.466-9.123 52.868-9.123 5.182 0 7.049 2.903 7.049 6.634 0 2.66-14.035 14.877-33.079 28.281-3.889 2.756-9.628 2.803-11.496-3.609-1.87-6.422-7.05-2.498-7.05-2.498-5.084-5.084-10.159 2.497-10.159 2.497 6.184-2.497 5.391 5.391 9.537 5.391s7.256 5.184 7.256 5.184c-5.498 2.537-8.292 1.036-12.646 1.036-7.049 0-7.464 5.391-7.464 5.391-9.537 3.732-6.635 12.439-6.635 12.439s0-2.281 3.939-6.22 8.086 2.902 13.062-2.073 9.952-3.318 9.952-3.318-1.451 4.147-4.976 6.013c-5.564 2.945-3.524 7.671-3.524 7.671-6.738 6.738 0 12.854 0 12.854s-2.488-7.878 3.42-9.641 6.427-6.428 9.434-9.434c3.006-3.006 6.013-2.902 12.647-2.902 6.635 0 12.647 4.354 14.306 0.415s11.817 0 11.817 0c-2.878-4.65-10.639-9.653-15.12-7.893-5.782 1.661-8.929-3.366-5.746-4.569 9.643-3.876 24.154-10.673 36.311-20.399 0 9.438 1.25 16.421 2.795 22.6 2.743 10.042-13.016 27.876-32.442 29.438-11.61 0.933-20.629-6.737-20.629-6.737s1.631 20.473 20.629 20.473c15.663 0 28.798-9.085 38.092-17.078 0.099 1.495 0.159 3.048 0.159 4.69 0 10.367-8.916 20.525-24.257 23.013 0 0 10.781 8.293 22.391 0 0 0 3.233 12.273 9.619 18.66 6.386-6.386 9.619-18.66 9.619-18.66 11.61 8.293 22.391 0 22.391 0-15.342-2.488-24.257-12.646-24.257-23.013 0-1.642 0.06-3.195 0.159-4.69 9.294 7.993 22.43 17.078 38.092 17.078 18.997 0 20.629-20.473 20.629-20.473s-9.019 7.67-20.629 6.737c-19.426-1.561-35.185-19.396-32.442-29.438 1.546-6.179 2.796-13.162 2.796-22.6 12.156 9.726 26.668 16.522 36.312 20.399 3.183 1.203 0.035 6.229-5.746 4.569-4.481-1.76-12.243 3.243-15.121 7.893 0 0 10.159-3.939 11.817 0 1.66 3.939 7.672-0.415 14.306-0.415 6.636 0 9.642-0.104 12.647 2.902 3.007 3.006 3.525 7.671 9.434 9.434s3.42 9.641 3.42 9.641 6.738-6.117 0-12.854c0 0 2.04-4.726-3.524-7.671-3.523-1.866-4.976-6.013-4.976-6.013s4.978-1.657 9.952 3.318c4.976 4.975 9.123-1.866 13.062 2.073s3.939 6.22 3.939 6.22 2.902-8.708-6.636-12.439c0 0-0.414-5.391-7.463-5.391-4.354 0-7.149 1.501-12.646-1.036 0 0 3.109-5.184 7.256-5.184s3.354-7.888 9.537-5.391c0 0-5.074-7.582-10.159-2.497 0 0-5.179-3.924-7.049 2.498-1.867 6.413-7.607 6.365-11.496 3.609-19.044-13.404-33.079-25.621-33.079-28.281 0-3.731 1.867-6.634 7.05-6.634 11.402 0 19.487 9.123 52.868 9.123 3.731 23.635 18.012 44.782 31.671 47.531 13.438 2.705 19.642-5.237 19.642-5.237-31.099-5.598-35.142-41.05-35.142-41.05 16.016 16.016 40.739 37.94 69.039 37.94 23.014 0 30.477-14.305 30.477-14.305-55.978 4.354-82.411-46.026-82.411-46.026s48.203 30.166 83.033 30.166c34.831 0 43.85-23.324 43.85-23.324-76.192 17.727-117.04-30.269-117.04-30.269s40.844 19.696 78.163 19.696c39.495 0 50.69-27.678 50.69-27.678-57.532 19.281-127.5-17.104-127.5-17.104z"/>
<path d="m292.21 34.33c1.348-0.089 2.468-0.07 3.429 0.026 3.069 0.31 4.525 1.423 6.659 2.39 2.488 1.319 4.504 1.822 8.51 1.857-8.241-0.8-7.699 2.863-12.138 3.521-4.451-2.037-3.518-6.283-3.031-7.768" fill="#fff" stroke="#000" stroke-width="2.25"/>
<path d="m391.4 127.92s4.603-6.221 13.89-2.696c0 0-1.598-18.098 14.544-17.031 0 0-6.458-16.556 9.713-21.532 0 0-9.951-14.512 2.074-24.049" fill="none" stroke="#fcef3c" stroke-linecap="round" stroke-linejoin="round" stroke-width="3"/>
<path d="m211.6 127.92s-4.603-6.221-13.89-2.696c0 0 1.598-18.098-14.543-17.031 0 0 6.458-16.556-9.713-21.532 0 0 9.951-14.512-2.074-24.049" fill="none" stroke="#fcef3c" stroke-linecap="round" stroke-linejoin="round" stroke-width="3"/>
</g>
<g>
<path d="m1.5 1.5v458.87c0 166.31 134.31 301.13 300 301.13 165.69 0 300-134.82 300-301.13v-458.87h-600z" fill="url(#a)"/>
<path d="m1.5 1.5v458.87c0 166.31 134.31 301.13 300 301.13 165.69 0 300-134.82 300-301.13v-458.87h-600z" fill="none" stroke="#000" stroke-width="3"/>
</g>
</svg>

<?xml version="1.0" encoding="UTF-8" standalone="no"?>
<svg
   xmlns:dc="http://purl.org/dc/elements/1.1/"
   xmlns:cc="http://creativecommons.org/ns#"
   xmlns:rdf="http://www.w3.org/1999/02/22-rdf-syntax-ns#"
   xmlns:svg="http://www.w3.org/2000/svg"
   xmlns="http://www.w3.org/2000/svg"
   xmlns:xlink="http://www.w3.org/1999/xlink"
   xmlns:sodipodi="http://sodipodi.sourceforge.net/DTD/sodipodi-0.dtd"
   xmlns:inkscape="http://www.inkscape.org/namespaces/inkscape"
   height="763"
   width="603"
   version="1.0"
   id="svg20"
   sodipodi:version="0.32"
   inkscape:version="0.46"
   sodipodi:docname="Saint-Oyens-coat_of_arms.svg"
   sodipodi:docbase="C:\Documents and Settings\Steve\Bureau\Blason Villages Suisse pour Wikipédia (par Delta-9)"
   inkscape:output_extension="org.inkscape.output.svg.inkscape">
  <metadata
     id="metadata31">
    <rdf:RDF>
      <cc:Work
         rdf:about="">
        <dc:format>image/svg+xml</dc:format>
        <dc:type
           rdf:resource="http://purl.org/dc/dcmitype/StillImage" />
        <dc:date>07-AUG-2006</dc:date>
        <dc:creator>
          <cc:Agent>
            <dc:title>Jérôme BLUM (wagner51)</dc:title>
          </cc:Agent>
        </dc:creator>
        <cc:license
           rdf:resource="http://creativecommons.org/licenses/GPL/2.0/" />
        <dc:coverage />
        <dc:description>Gabarit pour le Projet:Blasons de WIkipédia</dc:description>
        <dc:subject>
          <rdf:Bag>
            <rdf:li>blason suisse modèle gabarit projet blasons</rdf:li>
          </rdf:Bag>
        </dc:subject>
        <dc:language>fr</dc:language>
        <dc:title>Gabrit d'un blason suisse</dc:title>
      </cc:Work>
      <cc:License
         rdf:about="http://creativecommons.org/licenses/GPL/2.0/">
        <cc:permits
           rdf:resource="http://web.resource.org/cc/Reproduction" />
        <cc:permits
           rdf:resource="http://web.resource.org/cc/Distribution" />
        <cc:requires
           rdf:resource="http://web.resource.org/cc/Notice" />
        <cc:permits
           rdf:resource="http://web.resource.org/cc/DerivativeWorks" />
        <cc:requires
           rdf:resource="http://web.resource.org/cc/ShareAlike" />
        <cc:requires
           rdf:resource="http://web.resource.org/cc/SourceCode" />
      </cc:License>
    </rdf:RDF>
  </metadata>
  <defs
     id="defs29"><inkscape:perspective
   sodipodi:type="inkscape:persp3d"
   inkscape:vp_x="0 : 381.5 : 1"
   inkscape:vp_y="0 : 1000 : 0"
   inkscape:vp_z="603 : 381.5 : 1"
   inkscape:persp3d-origin="301.5 : 254.33333 : 1"
   id="perspective28" />
<linearGradient
   id="linearGradient2893">
  <stop
     style="stop-color:#ffffff;stop-opacity:0.3137255;"
     offset="0"
     id="stop2895" />
  <stop
     id="stop2897"
     offset="0.19"
     style="stop-color:#ffffff;stop-opacity:0.25098041;" />
  <stop
     style="stop-color:#6b6b6b;stop-opacity:0.1254902;"
     offset="0.60000002"
     id="stop2901" />
  <stop
     style="stop-color:#000000;stop-opacity:0.1254902;"
     offset="1"
     id="stop2899" />
</linearGradient>
<linearGradient
   id="linearGradient2955">
  <stop
     style="stop-color:white;stop-opacity:0;"
     offset="0"
     id="stop2965" />
  <stop
     style="stop-color:black;stop-opacity:0.64583331;"
     offset="1"
     id="stop2959" />
</linearGradient>
<radialGradient
   inkscape:collect="always"
   xlink:href="#linearGradient2893"
   id="radialGradient3236"
   gradientUnits="userSpaceOnUse"
   gradientTransform="matrix(1.215027,1.531577e-24,1.464684e-23,1.266667,-839.1924,-490.4894)"
   cx="858.04236"
   cy="579.93323"
   fx="858.04236"
   fy="579.93323"
   r="300" />
<inkscape:perspective
   id="perspective2502"
   inkscape:persp3d-origin="297.63751 : 280.63 : 1"
   inkscape:vp_z="595.27502 : 420.94501 : 1"
   inkscape:vp_y="0 : 1000 : 0"
   inkscape:vp_x="0 : 420.94501 : 1"
   sodipodi:type="inkscape:persp3d" />

	
	

	
	

		
		
		
	
		
	
			
			
		
			
			
			
		</defs>
  <sodipodi:namedview
     inkscape:window-height="968"
     inkscape:window-width="1280"
     inkscape:pageshadow="2"
     inkscape:pageopacity="0.0"
     guidetolerance="10.0"
     gridtolerance="10.0"
     objecttolerance="10.0"
     borderopacity="1.0"
     bordercolor="#666666"
     pagecolor="#ffffff"
     id="base"
     inkscape:zoom="0.92652193"
     inkscape:cx="173.53758"
     inkscape:cy="399.00713"
     inkscape:window-x="1280"
     inkscape:window-y="22"
     inkscape:current-layer="layer2"
     showgrid="false"
     showguides="true"
     inkscape:guide-bbox="true">
    <sodipodi:guide
       orientation="horizontal"
       position="761.5"
       id="guide1885" />
    <sodipodi:guide
       orientation="vertical"
       position="1.5"
       id="guide1887" />
    <sodipodi:guide
       orientation="horizontal"
       position="1.5"
       id="guide1889" />
    <sodipodi:guide
       orientation="vertical"
       position="601.5"
       id="guide1891" />
    <sodipodi:guide
       orientation="vertical"
       position="301.50081"
       id="guide1893" />
  </sodipodi:namedview>
  <desc
     id="desc22">Coat of Arms of Canton of Freiburg (Fribourg)</desc>
  <g
     inkscape:groupmode="layer"
     id="layer1"
     inkscape:label="Fond écu"
     style="opacity:1;display:inline"
     sodipodi:insensitive="true">
    <path
       d="M 1.5,1.5 L 1.5,460.369 C 1.5,626.68 135.814,761.5 301.5,761.5 C 467.186,761.5 601.5,626.68 601.5,460.369 L 601.5,1.5 L 1.5,1.5 z"
       id="path2509"
       style="opacity:1;fill:#fcef3c" />
    <path
       d="M 1.5,251.188 L 1.5,460.369 C 1.5,626.68 135.814,761.5 301.5,761.5 C 467.188,761.5 601.5,626.68 601.5,460.369 L 601.5,251.188 L 1.5,251.188 z"
       id="path2472"
       style="opacity:1;fill:#e20909" />
  </g>
  <g
     inkscape:groupmode="layer"
     id="layer2"
     inkscape:label="Meubles"
     style="opacity:1;display:inline"
     sodipodi:insensitive="true">
    <line
       style="fill:none;stroke:#000000;stroke-width:3"
       id="line2592"
       x1="1.5000036"
       y1="251.188"
       x2="601.49896"
       y2="251.188" />
    <g
       id="g2582">
      <path
         d="M 249.534,36.075 C 253.515,34.677 252.644,42.761 268.193,42.761 C 274.413,42.761 282.16,41.128 288.588,45.716 L 286.632,47.672 C 286.632,47.672 279.298,45.247 268.038,46.96 C 253.732,49.137 242.226,38.643 249.534,36.075 z"
         id="path2484" />
      <path
         d="M 261.196,36.852 C 261.196,36.852 270.008,23.273 289.393,32.55 L 290.895,46.181 L 285.039,59.087 C 285.039,59.087 273.636,61.73 267.105,51.001 C 267.105,51.001 282.032,53.956 286.386,45.714 C 286.386,45.716 282.965,36.075 261.196,36.852 z"
         id="path2486" />
      <path
         d="M 436.031,64.686 C 436.031,64.686 475.526,70.906 507.247,70.906 C 568.823,70.906 565.091,24.88 565.091,24.88 C 515.955,55.668 418.72,27.783 398.609,27.783 C 378.5,27.783 369.377,37.112 369.377,50.381 C 369.377,61.369 375.597,63.443 375.597,77.541 C 375.597,91.64 366.889,101.591 351.133,101.591 C 329.736,101.591 316.76,93.919 316.76,77.334 C 316.76,60.749 322.359,55.357 318.834,41.467 C 330.651,38.772 335.005,22.6 335.005,22.6 C 317.176,32.138 311.992,26.746 304.735,26.746 C 293.953,26.746 289.393,32.551 289.393,32.551 C 289.393,51.625 285.039,59.089 285.039,59.089 C 285.039,59.089 288.563,60.125 288.563,67.382 C 288.563,74.639 281.721,101.591 251.867,101.591 C 236.111,101.591 227.403,91.639 227.403,77.541 C 227.403,63.443 233.623,61.369 233.623,50.381 C 233.623,37.112 224.501,27.783 204.391,27.783 C 184.281,27.783 87.043,55.667 37.907,24.879 C 37.907,24.879 34.175,70.905 95.75,70.905 C 127.471,70.905 166.966,64.685 166.966,64.685 C 166.966,64.685 96.995,101.071 39.462,81.79 C 39.462,81.79 50.657,109.468 90.153,109.468 C 127.471,109.468 168.315,89.772 168.315,89.772 C 168.315,89.772 127.471,137.768 51.279,120.041 C 51.279,120.041 60.298,143.365 95.128,143.365 C 129.958,143.365 178.162,113.199 178.162,113.199 C 178.162,113.199 151.728,163.579 95.75,159.225 C 95.75,159.225 103.214,173.53 126.227,173.53 C 154.527,173.53 179.25,151.606 195.266,135.59 C 195.266,135.59 191.223,171.043 160.124,176.64 C 160.124,176.64 166.327,184.582 179.766,181.877 C 193.424,179.128 207.705,157.981 211.437,134.346 C 244.817,134.346 252.903,125.223 264.305,125.223 C 269.487,125.223 271.354,128.126 271.354,131.857 C 271.354,134.517 257.319,146.734 238.275,160.138 C 234.386,162.894 228.647,162.941 226.779,156.529 C 224.909,150.107 219.729,154.031 219.729,154.031 C 214.645,148.947 209.57,156.528 209.57,156.528 C 215.754,154.031 214.961,161.919 219.107,161.919 C 223.253,161.919 226.363,167.103 226.363,167.103 C 220.865,169.64 218.071,168.139 213.717,168.139 C 206.668,168.139 206.253,173.53 206.253,173.53 C 196.716,177.262 199.618,185.969 199.618,185.969 C 199.618,185.969 199.618,183.688 203.557,179.749 C 207.496,175.81 211.643,182.651 216.619,177.676 C 221.595,172.701 226.571,174.358 226.571,174.358 C 226.571,174.358 225.12,178.505 221.595,180.371 C 216.031,183.316 218.071,188.042 218.071,188.042 C 211.333,194.78 218.071,200.896 218.071,200.896 C 218.071,200.896 215.583,193.018 221.491,191.255 C 227.399,189.492 227.918,184.827 230.925,181.821 C 233.931,178.815 236.938,178.919 243.572,178.919 C 250.207,178.919 256.219,183.273 257.878,179.334 C 259.537,175.395 269.695,179.334 269.695,179.334 C 266.817,174.684 259.056,169.681 254.575,171.441 C 248.793,173.102 245.646,168.075 248.829,166.872 L 248.829,166.872 C 258.472,162.996 272.983,156.199 285.14,146.473 C 285.14,155.911 286.39,162.894 287.935,169.073 L 287.935,169.073 C 290.678,179.115 274.919,196.949 255.493,198.511 C 243.883,199.444 234.864,191.774 234.864,191.774 C 234.864,191.774 236.495,212.247 255.493,212.247 C 271.156,212.247 284.291,203.162 293.585,195.169 C 293.684,196.664 293.744,198.217 293.744,199.859 C 293.744,210.226 284.828,220.384 269.487,222.872 C 269.487,222.872 280.268,231.165 291.878,222.872 C 291.878,222.872 295.111,235.145 301.497,241.532 C 307.883,235.146 311.116,222.872 311.116,222.872 C 322.726,231.165 333.507,222.872 333.507,222.872 C 318.165,220.384 309.25,210.226 309.25,199.859 C 309.25,198.217 309.31,196.664 309.409,195.169 C 318.703,203.162 331.839,212.247 347.501,212.247 C 366.498,212.247 368.13,191.774 368.13,191.774 C 368.13,191.774 359.111,199.444 347.501,198.511 C 328.075,196.95 312.316,179.115 315.059,169.073 L 315.059,169.073 C 316.605,162.894 317.855,155.911 317.855,146.473 C 330.011,156.199 344.523,162.995 354.167,166.872 L 354.167,166.872 C 357.35,168.075 354.202,173.101 348.421,171.441 C 343.94,169.681 336.178,174.684 333.3,179.334 C 333.3,179.334 343.459,175.395 345.117,179.334 C 346.777,183.273 352.789,178.919 359.423,178.919 C 366.059,178.919 369.065,178.815 372.07,181.821 C 375.077,184.827 375.595,189.492 381.504,191.255 C 387.413,193.018 384.924,200.896 384.924,200.896 C 384.924,200.896 391.662,194.779 384.924,188.042 C 384.924,188.042 386.964,183.316 381.4,180.371 C 377.877,178.505 376.424,174.358 376.424,174.358 C 376.424,174.358 381.402,172.701 386.376,177.676 C 391.352,182.651 395.499,175.81 399.438,179.749 C 403.377,183.688 403.377,185.969 403.377,185.969 C 403.377,185.969 406.279,177.261 396.741,173.53 C 396.741,173.53 396.327,168.139 389.278,168.139 C 384.924,168.139 382.129,169.64 376.632,167.103 C 376.632,167.103 379.741,161.919 383.888,161.919 C 388.035,161.919 387.242,154.031 393.425,156.528 C 393.425,156.528 388.351,148.946 383.266,154.031 C 383.266,154.031 378.087,150.107 376.217,156.529 C 374.35,162.942 368.61,162.894 364.721,160.138 C 345.677,146.734 331.642,134.517 331.642,131.857 C 331.642,128.126 333.509,125.223 338.692,125.223 C 350.094,125.223 358.179,134.346 391.56,134.346 C 395.291,157.981 409.572,179.128 423.231,181.877 C 436.669,184.582 442.873,176.64 442.873,176.64 C 411.774,171.042 407.731,135.59 407.731,135.59 C 423.747,151.606 448.47,173.53 476.77,173.53 C 499.784,173.53 507.247,159.225 507.247,159.225 C 451.269,163.579 424.836,113.199 424.836,113.199 C 424.836,113.199 473.039,143.365 507.869,143.365 C 542.7,143.365 551.719,120.041 551.719,120.041 C 475.527,137.768 434.683,89.772 434.683,89.772 C 434.683,89.772 475.527,109.468 512.846,109.468 C 552.341,109.468 563.536,81.79 563.536,81.79 C 506.004,101.071 436.031,64.686 436.031,64.686 z"
         id="path2488" />
      <path
         d="M 292.209,34.33 C 293.557,34.241 294.677,34.26 295.638,34.356 C 298.707,34.666 300.163,35.779 302.297,36.746 C 304.785,38.065 306.801,38.568 310.807,38.603 C 302.566,37.803 303.108,41.466 298.669,42.124 C 294.218,40.087 295.151,35.841 295.638,34.356"
         sodipodi:nodetypes="ccccc"
         id="path719_4_"
         style="fill:#ffffff;stroke:#000000;stroke-width:2.25" />
      <path
         style="fill:none;stroke:#fcef3c;stroke-width:3;stroke-linecap:round;stroke-linejoin:round"
         d="M 391.397,127.92 C 391.397,127.92 396,121.699 405.287,125.224 C 405.287,125.224 403.689,107.126 419.831,108.193 C 419.831,108.193 413.373,91.637 429.544,86.661 C 429.544,86.661 419.593,72.149 431.618,62.612"
         id="path2493" />
      <path
         style="fill:none;stroke:#fcef3c;stroke-width:3;stroke-linecap:round;stroke-linejoin:round"
         d="M 211.602,127.92 C 211.602,127.92 206.999,121.699 197.712,125.224 C 197.712,125.224 199.31,107.126 183.169,108.193 C 183.169,108.193 189.627,91.637 173.456,86.661 C 173.456,86.661 183.407,72.149 171.382,62.612"
         id="path2495" />
    </g>
  </g>
  <g
     inkscape:groupmode="layer"
     id="layer3"
     inkscape:label="Reflet final"
     style="display:inline"
     sodipodi:insensitive="true">
    <path
       style="fill:url(#radialGradient3236);fill-opacity:1"
       d="M 1.5,1.5 L 1.5,460.3679 C 1.5,626.67854 135.81454,761.5 301.49993,761.5 C 467.1854,761.5 601.5,626.67854 601.5,460.3679 L 601.5,1.5 L 1.5,1.5 z "
       id="path2346" />
  </g>
  <g
     inkscape:groupmode="layer"
     id="layer4"
     inkscape:label="Contour final"
     style="display:inline"
     sodipodi:insensitive="true">
    <path
       style="fill:none;fill-opacity:1;stroke:#000000;stroke-width:3;stroke-miterlimit:4;stroke-dasharray:none;stroke-opacity:1"
       d="M 1.5,1.5 L 1.5,460.36794 C 1.5,626.67854 135.81454,761.5 301.49993,761.5 C 467.1854,761.5 601.5,626.67854 601.5,460.36794 L 601.5,1.5 L 1.5,1.5 z "
       id="path3239" />
  </g>
</svg>
